X:1
T:Title
%%score 1 2 3
L:1/8
Q:1/4=120
M:4/4
K:G
V:1 treble nm="Grand Piano"
V:2 treble nm="Grand Piano, Melody"
V:3 bass nm="Grand Piano"
V:1
 B4 B2 B2 | G2 A2 B2 d2 | e6 d2 | A2 B2 d2 dB | d6 d2 | e2 e2 e2 B2 | dB A2 A2 GA | B2 B2 c2 B2 | %8
 B8 | z4 e4 | e2 e2 e2 dB | d2 d2 d2 Bc | B2 c2 B2 B2 | B6 B2 | B2 d2 d2 G2 | A2 d2 d2 d2 | %16
 e2 B2 c2 B2 | B8 |] %18
V:2
 E4 E2 DC | B,2[K:bass] A,2 G,2 A,2 | B,6 B,2 | C2 B,2 A,2 G,2 | A,6 B,2 | G,2 B,2 B,2 G,2 | %6
 B,2[K:treble] D2 D2 C2 | B,2 E2 E2 D2 | E8 | z4[K:bass] B,4 | B,2 B,2 B,2 A,G, | %11
 A,2 A,2 A,2 G,A, | B,2[K:treble] E2 D2 D2 | E6 G2 | D2[K:bass] B,2 B,2 G,2 | F,2 A,2 A,2 G,A, | %16
 B,2 E2 E2 D2 | E8 |] %18
V:3
 E,4 E,2 B,,2 | E,2 F,2 G,2 F,2 | E,6 G,2 | A,2 G,2 F,2 E,2 | D,6 B,,2 | E,2 E,2 E,2 G,2 | %6
 D,2 D,2 D,2 E,2 | E,2 E,2 E,2 B,,2 | E,8 | z4 E,4 | E,2 E,2 G,2 F,E, | D,2 D,2 D,2 G,F, | %12
 E,2 E,2 B,,2 B,,2 | E,6 E,2 | G,2 G,2 G,2 E,2 | D,2 D,2 D,2 G,F, | E,2 E,2 E,2 B,,2 | E,8 |] %18

